X: 13
T: The Pigeon On The Gate
R: reel
M: 4/4
L: 1/8
K: Gmix
dG~G2 GedG | G2ce dcAG | FEFd cF~F2 | EFeg fdcA |
dG~G2 GedG | G2ce dcAG | F2eg abga | fdcA G2~c2 :|
|: dg~g2 fagf | dg~g2 bgag | dc~c2 Bcde | f2ga fdcA |
G2~g2 gagf | dg~g2 bgag | dc~c2 gceg | fdcA G2~c2 :|


Tune 517	Setting 13453

